build/system/UploadSolid.svg

<svg xmlns="http://www.w3.org/2000/svg" fill="none" viewBox="0 0 24 24" focusable="false"><path d="M0 0H24V24H0z"/><path fill="#74767B" fill-rule="evenodd" d="M12 3C7.02944 3 3 7.02944 3 12C3 16.9706 7.02944 21 12 21C16.9706 21 21 16.9706 21 12C21 7.02944 16.9706 3 12 3ZM8 16C7.64102 16 7.35 16.291 7.35 16.65C7.35 17.009 7.64102 17.3 8 17.3L16 17.3C16.8383 17.3 16.8383 16 16 16L8 16ZM12.0338 14.0125C12.3927 14.0125 12.6838 13.7215 12.6838 13.3625L12.6838 8.27613L14.58 10.3234C14.82 10.5934 15.23 10.6034 15.5 10.3634C15.76 10.1234 15.78 9.7134 15.54 9.4434L12.5537 6.23339C12.2737 5.92339 11.7937 5.92339 11.5137 6.23339L8.46004 9.4434C8.34004 9.5734 8.29004 9.7234 8.29004 9.8834C8.29004 10.0634 8.36004 10.2334 8.50004 10.3634C8.77004 10.6034 9.18004 10.5834 9.42004 10.3234L11.3838 8.22821L11.3838 13.3625C11.3838 13.7215 11.6748 14.0125 12.0338 14.0125Z"/></svg>

<svg xmlns="http://www.w3.org/2000/svg" fill="none" viewBox="0 0 24 24" focusable="false"><path fill="#74767B" fill-rule="evenodd" d="M12 3c-4.98 0-9 4.02-9 9 0 4.97 4.02 9 9 9a9 9 0 0 0 9-9c0-4.98-4.03-9-9-9M8 16c-.36 0-.65.29-.65.65 0 .35.29.64.65.64h8c.83 0 .83-1.29 0-1.29zm4.03-1.99c.36 0 .65-.29.65-.65V8.27l1.9 2.05c.23.27.65.28.92.04.26-.24.28-.65.04-.92l-2.99-3.21a.7.7 0 0 0-1.04 0L8.45 9.44c-.12.13-.16.28-.16.44 0 .18.06.35.21.48.27.24.68.22.91-.04l1.97-2.1v5.14c0 .36.29.65.65.65"/></svg>
